!!!!SEGMENT: pl-cz--iii-553--001-007_raszek-waclaw--missa-in-f-pleni-sunt.krn
!!!cenid: 18xx:1000
!!!COM: Raszek, Wacław
!!!COM-rismID: pe30020314
!!!CDT: <1848->1848
!!!CNT:
!!!OPR: Missa in F
!!!OTL: Pleni sunt
!!!OMV: 007
!!!PDT: 1829
!!!AGN: Sacred; Mass
!!!YEC: Copyright 2022 Narodowy Instytut Fryderyka Chopina (https://polishscores.org)
!!!YEM: License CC-BY-4.0 (https://creativecommons.org/licenses/by/4.0)
!!!SMS-siglum: PL-CZ
!!!SMS-shelfmark: III-553
!!!SMS-shelfwork: 001-007 M
!!!SMS-variant:
!!!SMS-altvar:
!!!NIFC-rismSourceID: 300001048
!!!NIFC-rismChildID: 300001048
!!!NIFC-islandoraID: pl-cz:38806
!!!URL-pdf-islandora: https://repozytorium.nifc.pl/islandora/object/pl-cz%3A38806/datastream/PDF/view
!!!URL-scan: https://polish.musicsources.pl/pl/lokalizacje/galeria/rekopisy/6943/1 @EN{Scan on Polish Music Sources Website} @PL{Skany w portalu Dziedzictwo Muzyki Polskiej w otwartym dostępie}
!!!IIIF:
!!!ONB-nifc: UWAGA: części Mszy: Kyrie, Gloria, Credo, Et incarnatus, Et resurrexit, Sanctus, Pleni sunt, Benedictus, Agnus Dei, Dona nobis
!!!AIN: 1 alto 1 bass 2 clars 2 cor 1 organ 1 soprn 1 tenor 1 viola 2 violn
!!!key: F
!!!OMD:
!!!OMD-mod: Allegro
**kern	**dynam	**kern	**dynam	**kern	**dynam	**kern	**dynam	**kern	**text	**dynam	**kern	**text	**dynam	**kern	**text	**dynam	**kern	**text	**dynam	**kern	**dynam	**kern	**dynam	**kern	**dynam	**kern	**dynam
*	*	*group4	*	*group4	*	*group4	*	*group3	*	*	*group3	*	*	*group3	*	*	*group3	*	*	*group2	*	*group2	*	*group1	*	*group1	*
*part12	*	*part11	*	*part10	*	*part9	*	*part8	*	*	*part7	*	*	*part6	*	*	*part5	*	*	*part4	*	*part3	*	*part2	*	*part1	*
*staff12	*	*staff11	*	*staff10	*	*staff9	*	*staff8	*	*	*staff7	*	*	*staff6	*	*	*staff5	*	*	*staff4	*	*staff3	*	*staff2	*	*staff1	*
*IGcont	*	*IGacmp	*	*IGacmp	*	*IGacmp	*	*IGcoro	*	*	*IGcoro	*	*	*IGcoro	*	*	*IGcoro	*	*	*IGacmp	*	*IGacmp	*	*IGacmp	*	*IGacmp	*
*ICklav	*	*ICstr	*	*ICstr	*	*ICstr	*	*ICvox	*	*	*ICvox	*	*	*ICvox	*	*	*ICvox	*	*	*ICbras	*	*ICbras	*	*ICww	*	*ICww	*
*Iorgan	*	*Iviola	*	*Ivioln	*	*Ivioln	*	*Ibass	*	*	*Itenor	*	*	*Ialto	*	*	*Isoprn	*	*	*Icor	*	*Icor	*	*Iclars	*	*Iclars	*
*I"Organo.	*	*I"Alto Viola	*	*I"Violino Secondo.	*	*I"Violino Primo.	*	*I"Basso.	*	*	*I"Tenore.	*	*	*I"Alto.	*	*	*I"Canto.	*	*	*I"Corno Secondo in F.	*	*I"Corno Primo in F.	*	*I"Clarinetto Secondo in B.	*	*I"Clarinetto. Primo. in B.	*
*mI"Organo	*	*mI"Viola	*	*mI"Violino II	*	*mI"Violino I	*	*mI"Basso	*	*	*mI"Tenore	*	*	*mI"Alto	*	*	*mI"Soprano	*	*	*mI"Corno II in F	*	*mI"Corno I in F	*	*mI"Clarinetto II in Bb	*	*mI"Clarinetto I in Bb	*
*I'org	*	*I'a-vla	*	*I'vl 2	*	*I'vl 1	*	*I'B	*	*	*I'T	*	*	*I'A	*	*	*I'S	*	*	*I'cor 2	*	*I'cor 1	*	*I'cl 2	*	*I'cl 1	*
*clefF4	*	*clefC3	*	*clefG2	*	*clefG2	*	*clefF4	*	*	*clefC4	*	*	*clefC3	*	*	*clefC1	*	*	*clefG2	*	*clefG2	*	*clefG2	*	*clefG2	*
*	*	*	*	*	*	*	*	*	*	*	*mclefGv2	*	*	*mclefG2	*	*	*mclefG2	*	*	*	*	*	*	*	*	*	*
*	*	*	*	*	*	*	*	*	*	*	*	*	*	*	*	*	*	*	*	*ITrd4c7	*	*ITrd4c7	*	*ITrd1c2	*	*ITrd1c2	*
*k[b-]	*	*k[b-]	*	*k[b-]	*	*k[b-]	*	*k[b-]	*	*	*k[b-]	*	*	*k[b-]	*	*	*k[b-]	*	*	*k[b-]	*	*k[b-]	*	*k[b-]	*	*k[b-]	*
*F:	*	*F:	*	*F:	*	*F:	*	*F:	*	*	*F:	*	*	*F:	*	*	*F:	*	*	*	*	*	*	*F:	*	*F:	*
*M3/4	*	*M3/4	*	*M3/4	*	*M3/4	*	*M3/4	*	*	*M3/4	*	*	*M3/4	*	*	*M3/4	*	*	*M3/4	*	*M3/4	*	*M3/4	*	*M3/4	*
*2\right	*	*2\right	*	*2\right	*	*2\right	*	*2\right	*	*	*2\right	*	*	*2\right	*	*	*2\right	*	*	*2\right	*	*2\right	*	*2\right	*	*2\right	*
=1	=1	=1	=1	=1	=1	=1	=1	=1	=1	=1	=1	=1	=1	=1	=1	=1	=1	=1	=1	=1	=1	=1	=1	=1	=1	=1	=1
!	!	!	!	!	!	!	!	!	!	!	!	!	!	!	!	!	!	!	!	!	!	!	!	!	!	!	!
!	!	!LO:MO:null:mod=!LO&colon;TX&colon;i&colon;t=[Tutti]	!	!LO:MO:null:mod=!LO&colon;TX&colon;i&colon;t=[Tutti]	!	!	!	!	!	!	!	!	!	!LO:TX:a:t=Allo:rj:mod=	!	!	!LO:TX:a:i:t=Tutti	!	!	!LO:MO:null:mod=!LO&colon;TX&colon;i&colon;t=[Tutti]	!	!	!LO:MO:null:mod=!LO&colon;DY&colon;ed=brack	!	!LO:MO:null:mod=!LO&colon;DY&colon;ed=brack	!LO:TX:a:i:t=Tutti:rj	!LO:MO:null:mod=!LO&colon;DY&colon;ed=brack
!LO:MO:null:mod=!LO&colon;TX&colon;i&colon;t=[Tutti]	!	!LO:TX:a:t=allo.:mod=	!	!LO:TX:a:t=allo.:mod=	!	!LO:MO:null:mod=!LO&colon;TX&colon;i&colon;t=[Tutti]	!	!LO:MO:null:mod=!LO&colon;TX&colon;i&colon;t=[Tutti]	!	!	!LO:MO:null:mod=!LO&colon;TX&colon;i&colon;t=[Tutti]	!	!	!LO:MO:mod=!LO&colon;TX&colon;i&colon;t=Tutti	!	!	!LO:TX:a:t=allo:rj:mod=	!	!	!LO:TX:b:t=allo:mod=	!	!LO:MO:null:mod=!LO&colon;TX&colon;i&colon;t=[Tutti]	!	!LO:MO:null:mod=!LO&colon;TX&colon;i&colon;t=[Tutti]	!	!	!
!LO:TX:a:t=Pleni Allo:mod=	!LO:DY:b:t=for.:rj	!	!LO:DY:b:rj:t=for.	!.	!LO:DY:b:t=for.	!.	!LO:DY:t=for.:b	!LO:TX:a:t=allo:mod=	!	!LO:DY:a:t=for.	!LO:TX:a:t=allo.:rj:mod=	!	!LO:DY:a:t=for.	!LO:TX:a:i:t=Tutti.	!	!	!	!	!LO:DY:a:t=for	!.	!LO:DY:b:t=for.	!	!LO:MO:null:mod=f	!	!LO:MO:null:mod=f	!LO:TX:a:t=allo.:rj:mod=	!LO:MO:null:mod=f
(8C/L	f	8c\L	f	8cc\ 8ee	f	8cc\ 8bb-	f	4C\	Ple-	f	4c\	Ple-	f	4g\	Ple-	.	4ee\	Ple-	f	4c\	f	4g\	.	4gg\	.	4bb-\	.
8D/	.	8d\	.	4cc\ 4ee	.	4cc\ 4bb-	.	.	.	.	.	.	.	.	.	.	.	.	.	.	.	.	.	.	.	.	.
8E/	.	8e\	.	.	.	.	.	4C\	-ni	.	4c\	-ni	.	4g\	-ni	.	4ee\	-ni	.	4c\	.	4g\	.	4gg\	.	4bb-\	.
8F/J)	.	8f\	.	4cc\ 4ee	.	4cc\ 4bb-	.	.	.	.	.	.	.	.	.	.	.	.	.	.	.	.	.	.	.	.	.
8G\L	.	8g\	.	.	.	.	.	4C\	sunt	.	4c\	sunt	.	4g\	sunt	.	4ee\	sunt	.	4c\	.	4g\	.	4ee\	.	4bb-\	.
!	!	!	!	!	!	!LO:SIC:o=[8cc\ 8bb-	!	!	!	!	!	!	!	!	!	!	!	!	!	!	!	!	!	!	!	!	!
8A\J	.	8a\J	.	8cc\ 8ee	.	[8cc\ [8bb-	.	.	.	.	.	.	.	.	.	.	.	.	.	.	.	.	.	.	.	.	.
=2	=2	=2	=2	=2	=2	=2	=2	=2	=2	=2	=2	=2	=2	=2	=2	=2	=2	=2	=2	=2	=2	=2	=2	=2	=2	=2	=2
!	!	!	!	!	!	!LO:SIC:o=8cc\] 8bb-	!	!	!	!	!	!	!	!	!	!	!	!LO:MO:mod=Cae-	!	!	!	!	!	!	!	!	!
(8B-\L	.	8b-\L	.	8cc\ 8ee	.	8cc\] 8bb-]	.	4C\	Cae-	.	4c\	Cae-	.	4g\	Cae-	.	4ee\	cae-	.	2.c/	.	2.g\	.	2.ee\	.	2.bb-\	.
8A\	.	8a\	.	4cc\ 4ee	.	4cc\ 4bb-	.	.	.	.	.	.	.	.	.	.	.	.	.	.	.	.	.	.	.	.	.
8G\	.	8g\	.	.	.	.	.	4C\	-li	.	4c\	-li	.	4g\	-li	.	4ee\	-li	.	.	.	.	.	.	.	.	.
8F\	.	8f\	.	4cc\ 4ee	.	4cc\ 4bb-	.	.	.	.	.	.	.	.	.	.	.	.	.	.	.	.	.	.	.	.	.
8E\	.	8e\	.	.	.	.	.	4C\	et	.	4c\	et	.	4g\	et	.	4ee\	et	.	.	.	.	.	.	.	.	.
!	!	!	!	!	!	!LO:SIC:o=[8cc\ 8bb-	!	!	!	!	!	!	!	!	!	!	!	!	!	!	!	!	!	!	!	!	!
8D\J)	.	8d\J	.	8cc\ 8ee	.	[8cc\ [8bb-	.	.	.	.	.	.	.	.	.	.	.	.	.	.	.	.	.	.	.	.	.
=3	=3	=3	=3	=3	=3	=3	=3	=3	=3	=3	=3	=3	=3	=3	=3	=3	=3	=3	=3	=3	=3	=3	=3	=3	=3	=3	=3
!	!	!	!	!	!	!LO:SIC:o=8cc\] 8bb-	!	!	!	!	!	!	!	!	!	!	!	!	!	!	!	!	!	!	!	!	!
(8C\L	.	8c\L	.	8cc\ 8ee	.	8cc\] 8bb-]	.	2.C/	ter-	.	2.B-\	ter-	.	2.g\	ter-	.	2.ee\	ter-	.	2.c/	.	2.g\	.	2.ee\	.	2.bb-\	.
8D\	.	8d\	.	4cc\ 4ee	.	4cc\ 4bb-	.	.	.	.	.	.	.	.	.	.	.	.	.	.	.	.	.	.	.	.	.
8E\	.	8e\	.	.	.	.	.	.	.	.	.	.	.	.	.	.	.	.	.	.	.	.	.	.	.	.	.
8F\	.	8f\	.	4cc\ 4ee	.	4cc\ 4bb-	.	.	.	.	.	.	.	.	.	.	.	.	.	.	.	.	.	.	.	.	.
8G\)	.	8g\	.	.	.	.	.	.	.	.	.	.	.	.	.	.	.	.	.	.	.	.	.	.	.	.	.
8E\J	.	8e\J	.	8cc\ 8ee	.	8cc\ 8bb-	.	.	.	.	.	.	.	.	.	.	.	.	.	.	.	.	.	.	.	.	.
=4	=4	=4	=4	=4	=4	=4	=4	=4	=4	=4	=4	=4	=4	=4	=4	=4	=4	=4	=4	=4	=4	=4	=4	=4	=4	=4	=4
*	*	*	*	*tremolo	*	*	*	*	*	*	*	*	*	*	*	*	*	*	*	*	*	*	*	*	*	*	*
!	!	!	!	!	!	!LO:LB:g=original	!	!	!	!	!	!	!	!	!	!	!	!	!	!	!	!	!	!	!	!	!
8F\L	.	8f\L	.	16a/LL	.	16aa\LL	.	4F\	-ra	.	4A\	-ra	.	4a\	-ra	.	4ff\	-ra	.	4A/	.	4f\	.	4ff\	.	4aa\	.
.	.	.	.	16a/	.	16aa\	.	.	.	.	.	.	.	.	.	.	.	.	.	.	.	.	.	.	.	.	.
8F\J	.	8f\	.	16a/	.	16gg\	.	.	.	.	.	.	.	.	.	.	.	.	.	.	.	.	.	.	.	.	.
.	.	.	.	16a/	.	16gg\JJ	.	.	.	.	.	.	.	.	.	.	.	.	.	.	.	.	.	.	.	.	.
!LO:TX:t=P:problem=mixed beam	!	!	!	!	!	!	!	!	!	!	!	!	!	!	!	!	!	!	!	!	!	!	!	!	!	!	!
8FF/L	.	8c\	.	16a/	.	16ff\LL	.	4r	.	.	4r	.	.	4r	.	.	4r	.	.	4A/	.	4f\	.	4a\	.	4ff\	.
.	.	.	.	16a/	.	16ff\	.	.	.	.	.	.	.	.	.	.	.	.	.	.	.	.	.	.	.	.	.
8FF/	.	8c\	.	16a/	.	16ee\	.	.	.	.	.	.	.	.	.	.	.	.	.	.	.	.	.	.	.	.	.
.	.	.	.	16a/	.	16ee\JJ	.	.	.	.	.	.	.	.	.	.	.	.	.	.	.	.	.	.	.	.	.
8F\	.	8d\	.	16a/	.	16dd\LL	.	(4F\	glo-	.	[4d\	glo-	.	[4f\	glo-	.	(4a\	glo-	.	4r	.	4r	.	4a\	.	[4ff\	.
.	.	.	.	16a/	.	16dd\	.	.	.	.	.	.	.	.	.	.	.	.	.	.	.	.	.	.	.	.	.
8F\J	.	8d\J	.	16a/	.	16cc\	.	.	.	.	.	.	.	.	.	.	.	.	.	.	.	.	.	.	.	.	.
.	.	.	.	16a/JJ	.	16cc\JJ	.	.	.	.	.	.	.	.	.	.	.	.	.	.	.	.	.	.	.	.	.
=5	=5	=5	=5	=5	=5	=5	=5	=5	=5	=5	=5	=5	=5	=5	=5	=5	=5	=5	=5	=5	=5	=5	=5	=5	=5	=5	=5
!LO:LB:g=original	!	!	!	!	!	!	!	!	!	!	!	!	!	!	!	!	!	!	!	!	!	!	!	!	!	!	!
!LO:TX:t=P:problem=mixed beam	!	!	!	!	!	!	!	!	!	!	!	!	!	!	!	!	!	!	!	!LO:TX:a:t=7.:mod=	!	!LO:TX:a:t=7.:mod=	!	!	!	!	!
8G\L	.	8d\L	.	16b-/LL	.	16bb-\LL	.	4.G\)	.	.	4.d\]	.	.	4.f\]	.	.	4.b-\)	.	.	0.r	.	0.r	.	2.b-\	.	4ff\]	.
.	.	.	.	16b-/	.	16bb-\	.	.	.	.	.	.	.	.	.	.	.	.	.	.	.	.	.	.	.	.	.
8G\	.	8d\J	.	16b-/	.	16aa\	.	.	.	.	.	.	.	.	.	.	.	.	.	.	.	.	.	.	.	.	.
.	.	.	.	16b-/	.	16aa\JJ	.	.	.	.	.	.	.	.	.	.	.	.	.	.	.	.	.	.	.	.	.
*	*	*tremolo	*	*	*	*	*	*	*	*	*	*	*	*	*	*	*	*	*	*	*	*	*	*	*	*	*
!	!	!	!	!	!	!	!	!	!	!	!	!	!	!	!	!	!	!	!	!	!	!	!	!	!	!	!
8GG/	.	8e\L	.	16b-/	.	16gg\LL	.	.	.	.	.	.	.	.	.	.	.	.	.	.	.	.	.	.	.	4ee\	.
.	.	.	.	16b-/	.	16gg\	.	.	.	.	.	.	.	.	.	.	.	.	.	.	.	.	.	.	.	.	.
8GG/J	.	8e\	.	16b-/	.	16ff\	.	8G\	-ri-	.	8d\	-ri-	.	8e\	-ri-	.	8b-\	-ri-	.	.	.	.	.	.	.	.	.
.	.	.	.	16b-/	.	16ff\JJ	.	.	.	.	.	.	.	.	.	.	.	.	.	.	.	.	.	.	.	.	.
8G\L	.	8e\	.	16b-/	.	16ee\LL	.	4G\	-a	.	4e\	-a	.	4g\	-a	.	4b-\	-a	.	.	.	.	.	.	.	[>4gg\	.
.	.	.	.	16b-/	.	16ee\	.	.	.	.	.	.	.	.	.	.	.	.	.	.	.	.	.	.	.	.	.
8G\J	.	8e\J	.	16b-/	.	16dd\	.	.	.	.	.	.	.	.	.	.	.	.	.	.	.	.	.	.	.	.	.
.	.	.	.	16b-/JJ	.	16dd\JJ	.	.	.	.	.	.	.	.	.	.	.	.	.	.	.	.	.	.	.	.	.
*	*	*Xtremolo	*	*	*	*	*	*	*	*	*	*	*	*	*	*	*	*	*	*	*	*	*	*	*	*	*
=6	=6	=6	=6	=6	=6	=6	=6	=6	=6	=6	=6	=6	=6	=6	=6	=6	=6	=6	=6	=6	=6	=6	=6	=6	=6	=6	=6
!LO:TX:t=P:problem=mixed beam	!	!LO:LB:g=original	!	!LO:LB:g=original	!	!	!	!LO:LB:g=original	!	!	!LO:LB:g=original	!	!	!LO:LB:g=original	!	!	!	!	!	!	!	!	!	!	!	!	!
8A\L	.	8e\L	.	16cc/LL	.	16ccc\LL	.	2.A\	tu-	.	(4e\	tu-	.	(4g\	tu-	.	2.cc\	tu-	.	.	.	.	.	2.cc\	.	4gg\]	.
.	.	.	.	16cc/	.	16ccc\	.	.	.	.	.	.	.	.	.	.	.	.	.	.	.	.	.	.	.	.	.
8A\	.	8e\J	.	16cc/	.	16bb-\	.	.	.	.	.	.	.	.	.	.	.	.	.	.	.	.	.	.	.	.	.
.	.	.	.	16cc/	.	16bb-\JJ	.	.	.	.	.	.	.	.	.	.	.	.	.	.	.	.	.	.	.	.	.
*	*	*tremolo	*	*	*	*	*	*	*	*	*	*	*	*	*	*	*	*	*	*	*	*	*	*	*	*	*
8AA/	.	8f\L	.	16cc/	.	16aa\LL	.	.	.	.	4f\	.	.	4f\	.	.	.	.	.	.	.	.	.	.	.	4ff\	.
.	.	.	.	16cc/	.	16aa\	.	.	.	.	.	.	.	.	.	.	.	.	.	.	.	.	.	.	.	.	.
8AA/J	.	8f\	.	16cc/	.	16gg\	.	.	.	.	.	.	.	.	.	.	.	.	.	.	.	.	.	.	.	.	.
.	.	.	.	16cc/	.	16gg\JJ	.	.	.	.	.	.	.	.	.	.	.	.	.	.	.	.	.	.	.	.	.
!	!	!	!	!	!	!	!	!	!	!	!	!	!	!	!	!	!	!	!	!	!	!	!	!	!	!LO:TX:t=P:problem=brak początku ligatury	!
8A\L	.	8f\	.	16cc/	.	16ff\LL	.	.	.	.	4c\)	.	.	4a\)	.	.	.	.	.	.	.	.	.	.	.	[4aa\	.
.	.	.	.	16cc/	.	16ff\	.	.	.	.	.	.	.	.	.	.	.	.	.	.	.	.	.	.	.	.	.
8A\J	.	8f\J	.	16cc/	.	16ee\	.	.	.	.	.	.	.	.	.	.	.	.	.	.	.	.	.	.	.	.	.
.	.	.	.	16cc/JJ	.	16ee\JJ	.	.	.	.	.	.	.	.	.	.	.	.	.	.	.	.	.	.	.	.	.
*	*	*Xtremolo	*	*	*	*	*	*	*	*	*	*	*	*	*	*	*	*	*	*	*	*	*	*	*	*	*
=7	=7	=7	=7	=7	=7	=7	=7	=7	=7	=7	=7	=7	=7	=7	=7	=7	=7	=7	=7	=7	=7	=7	=7	=7	=7	=7	=7
!	!	!	!	!	!	!	!	!	!	!	!	!	!	!	!	!	!LO:LB:g=original	!	!	!	!	!	!	!	!	!LO:LB:g=original	!
8B-\L	.	8f\L	.	16dd\LL	.	16ddd\LL	.	4B-\	-a	.	4B-\	-a	.	4f\	-a	.	4dd\	-a	.	.	.	.	.	2.dd\	.	4aa\]	.
.	.	.	.	16dd\	.	16ddd\	.	.	.	.	.	.	.	.	.	.	.	.	.	.	.	.	.	.	.	.	.
8B-\J	.	8f\J	.	16dd\	.	16ccc\	.	.	.	.	.	.	.	.	.	.	.	.	.	.	.	.	.	.	.	.	.
.	.	.	.	16dd\	.	16ccc\JJ	.	.	.	.	.	.	.	.	.	.	.	.	.	.	.	.	.	.	.	.	.
*	*	*tremolo	*	*	*	*	*	*	*	*	*	*	*	*	*	*	*	*	*	*	*	*	*	*	*	*	*
8BB-/L	.	8g\L	.	16dd\	.	16bb-\LL	.	4r	.	.	4r	.	.	4r	.	.	4r	.	.	.	.	.	.	.	.	4gg\	.
.	.	.	.	16dd\	.	16bb-\	.	.	.	.	.	.	.	.	.	.	.	.	.	.	.	.	.	.	.	.	.
8BB-/J	.	8g\	.	16dd\	.	16aa\	.	.	.	.	.	.	.	.	.	.	.	.	.	.	.	.	.	.	.	.	.
.	.	.	.	16dd\	.	16aa\JJ	.	.	.	.	.	.	.	.	.	.	.	.	.	.	.	.	.	.	.	.	.
8B-\L	.	8g\	.	16dd\	.	16gg\LL	.	4r	.	.	4r	.	.	4r	.	.	4r	.	.	.	.	.	.	.	.	[4bb-\	.
.	.	.	.	16dd\	.	16gg\	.	.	.	.	.	.	.	.	.	.	.	.	.	.	.	.	.	.	.	.	.
8B-\J	.	8g\J	.	16dd\	.	16ff\	.	.	.	.	.	.	.	.	.	.	.	.	.	.	.	.	.	.	.	.	.
.	.	.	.	16dd\JJ	.	16ff\JJ	.	.	.	.	.	.	.	.	.	.	.	.	.	.	.	.	.	.	.	.	.
*	*	*Xtremolo	*	*Xtremolo	*	*	*	*	*	*	*	*	*	*	*	*	*	*	*	*	*	*	*	*	*	*	*
=8	=8	=8	=8	=8	=8	=8	=8	=8	=8	=8	=8	=8	=8	=8	=8	=8	=8	=8	=8	=8	=8	=8	=8	=8	=8	=8	=8
!LO:TX:t=P:problem=mixed beam	!	!	!	!	!	!LO:LB:g=original	!	!	!	!	!	!	!	!	!	!	!	!	!	!	!	!	!	!	!	!	!
8C/L	.	8g\L	.	16cc\LL	.	16ee\LL	.	4r	.	.	4r	.	.	4r	.	.	4r	.	.	.	.	.	.	8ee\L	.	4bb-\]	.
.	.	.	.	16cc\	.	16ee\	.	.	.	.	.	.	.	.	.	.	.	.	.	.	.	.	.	.	.	.	.
!	!	!	!	!	!	!LO:SIC:v:o=16ee\	!	!	!	!	!	!	!	!	!	!	!	!	!	!	!	!	!	!	!	!	!
8c\J	.	8g\J	.	16ee-X\	.	16ee-	.	.	.	.	.	.	.	.	.	.	.	.	.	.	.	.	.	8ee-\J	.	.	.
!	!	!	!	!	!	!LO:SIC:v:o=16ee\JJ	!	!	!	!	!	!	!	!	!	!	!	!	!	!	!	!	!	!	!	!	!
.	.	.	.	16ee-\JJ	.	16ee-JJ	.	.	.	.	.	.	.	.	.	.	.	.	.	.	.	.	.	.	.	.	.
*	*	*tremolo	*	*tremolo	*	*tremolo	*	*	*	*	*	*	*	*	*	*	*	*	*	*	*	*	*	*	*	*	*
!	!	!	!	!	!	!	!	!	!	!	!	!	!	!	!	!	!	!	!	!	!	!	!	!	!	!	!
8A\L	.	8a\L	.	16dd\LL	.	16ccc\LL	.	(8A\L	O-	.	2d\	O-	.	2a\	O-	.	2cc\	O-	.	.	.	.	.	4dd\	.	4ccc\	.
.	.	.	.	16dd\	.	16ccc\	.	.	.	.	.	.	.	.	.	.	.	.	.	.	.	.	.	.	.	.	.
8G\	.	8a\	.	16dd\	.	16ccc\	.	8G\J	.	.	.	.	.	.	.	.	.	.	.	.	.	.	.	.	.	.	.
.	.	.	.	16dd\	.	16ccc\	.	.	.	.	.	.	.	.	.	.	.	.	.	.	.	.	.	.	.	.	.
8F#X\	.	8a\	.	16dd\	.	16ccc\	.	4F#X\)	.	.	.	.	.	.	.	.	.	.	.	.	.	.	.	4g\	.	4dd\	.
.	.	.	.	16dd\	.	16ccc\	.	.	.	.	.	.	.	.	.	.	.	.	.	.	.	.	.	.	.	.	.
8A\J	.	8a\J	.	16dd\	.	16ccc\	.	.	.	.	.	.	.	.	.	.	.	.	.	.	.	.	.	.	.	.	.
.	.	.	.	16dd\JJ	.	16ccc\JJ	.	.	.	.	.	.	.	.	.	.	.	.	.	.	.	.	.	.	.	.	.
*	*	*Xtremolo	*	*	*	*Xtremolo	*	*	*	*	*	*	*	*	*	*	*	*	*	*	*	*	*	*	*	*	*
=9	=9	=9	=9	=9	=9	=9	=9	=9	=9	=9	=9	=9	=9	=9	=9	=9	=9	=9	=9	=9	=9	=9	=9	=9	=9	=9	=9
!	!	!	!	!	!	!	!	!	!	!	!	!	!	!	!	!	!	!	!	!	!	!	!	!LO:LB:g=original	!	!	!
8G\L	.	8a\L	.	16dd\LL	.	16ccc\LL	.	(4.G\	-san-	.	2d\	-ſan-	.	(4a\	-san-	.	(4cc\	-san-	.	1.r	.	1.r	.	4b-\	.	4dd\	.
.	.	.	.	16dd\	.	16ccc\	.	.	.	.	.	.	.	.	.	.	.	.	.	.	.	.	.	.	.	.	.
8B-\	.	8a\J	.	16dd\	.	16ccc\	.	.	.	.	.	.	.	.	.	.	.	.	.	.	.	.	.	.	.	.	.
.	.	.	.	16dd\	.	16ccc\JJ	.	.	.	.	.	.	.	.	.	.	.	.	.	.	.	.	.	.	.	.	.
*	*	*tremolo	*	*	*	*tremolo	*	*	*	*	*	*	*	*	*	*	*	*	*	*	*	*	*	*	*	*	*
8G\	.	8g\L	.	16dd\	.	16bb-\LL	.	.	.	.	.	.	.	4g\)	.	.	4b-\)	.	.	.	.	.	.	2gg\	.	2bb-\	.
.	.	.	.	16dd\	.	16bb-\	.	.	.	.	.	.	.	.	.	.	.	.	.	.	.	.	.	.	.	.	.
8F\	.	8g\	.	16dd\	.	16bb-\	.	8Fn\)	.	.	.	.	.	.	.	.	.	.	.	.	.	.	.	.	.	.	.
.	.	.	.	16dd\	.	16bb-\	.	.	.	.	.	.	.	.	.	.	.	.	.	.	.	.	.	.	.	.	.
8E\	.	8g\	.	16dd\	.	16bb-\	.	4E\	-na	.	4c\	-na	.	4g\	-na	.	4b-\	-na	.	.	.	.	.	.	.	.	.
.	.	.	.	16dd\	.	16bb-\	.	.	.	.	.	.	.	.	.	.	.	.	.	.	.	.	.	.	.	.	.
8G\J	.	8g\J	.	16dd\	.	16bb-\	.	.	.	.	.	.	.	.	.	.	.	.	.	.	.	.	.	.	.	.	.
.	.	.	.	16dd\JJ	.	16bb-\JJ	.	.	.	.	.	.	.	.	.	.	.	.	.	.	.	.	.	.	.	.	.
*	*	*Xtremolo	*	*	*	*Xtremolo	*	*	*	*	*	*	*	*	*	*	*	*	*	*	*	*	*	*	*	*	*
=10	=10	=10	=10	=10	=10	=10	=10	=10	=10	=10	=10	=10	=10	=10	=10	=10	=10	=10	=10	=10	=10	=10	=10	=10	=10	=10	=10
!LO:LB:g=original	!	!	!	!	!	!	!	!	!	!	!	!	!	!	!	!	!	!	!	!	!	!	!	!	!	!	!
!LO:TX:t=P:problem=mixed beam	!	!	!	!	!	!	!	!	!	!	!	!	!	!	!	!	!	!	!	!	!	!	!	!	!	!	!
8AA/L	.	8g\L	.	16cc\LL	.	16bb-\LL	.	(4.F\	in	.	2c\	in	.	(4g\	in	.	(4b-\	in	.	.	.	.	.	2.cc\	.	4gg\	.
.	.	.	.	16cc\	.	16bb-\	.	.	.	.	.	.	.	.	.	.	.	.	.	.	.	.	.	.	.	.	.
8A\J	.	8g\J	.	16cc\	.	16bb-\	.	.	.	.	.	.	.	.	.	.	.	.	.	.	.	.	.	.	.	.	.
.	.	.	.	16cc\	.	16bb-\JJ	.	.	.	.	.	.	.	.	.	.	.	.	.	.	.	.	.	.	.	.	.
*	*	*tremolo	*	*	*	*tremolo	*	*	*	*	*	*	*	*	*	*	*	*	*	*	*	*	*	*	*	*	*
8F\L	.	8f\L	.	16cc\	.	16aa\LL	.	.	.	.	.	.	.	4f\)	.	.	4a\)	.	.	.	.	.	.	.	.	2ff\	.
.	.	.	.	16cc\	.	16aa\	.	.	.	.	.	.	.	.	.	.	.	.	.	.	.	.	.	.	.	.	.
8E\	.	8f\	.	16cc\	.	16aa\	.	8E\)	.	.	.	.	.	.	.	.	.	.	.	.	.	.	.	.	.	.	.
.	.	.	.	16cc\	.	16aa\	.	.	.	.	.	.	.	.	.	.	.	.	.	.	.	.	.	.	.	.	.
8D\	.	8f\	.	16cc\	.	16aa\	.	4D\	ex-	.	4c\	ex-	.	4f\	ex-	.	4a\	ex-	.	.	.	.	.	.	.	.	.
.	.	.	.	16cc\	.	16aa\	.	.	.	.	.	.	.	.	.	.	.	.	.	.	.	.	.	.	.	.	.
8F\J	.	8f\J	.	16cc\	.	16aa\	.	.	.	.	.	.	.	.	.	.	.	.	.	.	.	.	.	.	.	.	.
.	.	.	.	16cc\JJ	.	16aa\JJ	.	.	.	.	.	.	.	.	.	.	.	.	.	.	.	.	.	.	.	.	.
*	*	*Xtremolo	*	*	*	*Xtremolo	*	*	*	*	*	*	*	*	*	*	*	*	*	*	*	*	*	*	*	*	*
=11	=11	=11	=11	=11	=11	=11	=11	=11	=11	=11	=11	=11	=11	=11	=11	=11	=11	=11	=11	=11	=11	=11	=11	=11	=11	=11	=11
!LO:TX:t=P:problem=mixed beam	!	!	!	!	!	!	!	!	!	!	!	!	!	!	!	!	!	!	!	!	!	!	!	!	!	!	!
8GG/L	.	8f\L	.	16b-\LL	.	16aa\LL	.	(4.E\	-cel-	.	2B-\	-Cel-	.	(4f\	-cel-	.	(4a\	-cel-	.	2.r	.	2.r	.	2.b-\	.	4ff\	.
.	.	.	.	16b-\	.	16aa\	.	.	.	.	.	.	.	.	.	.	.	.	.	.	.	.	.	.	.	.	.
8G\J	.	8f\J	.	16b-\	.	16aa\	.	.	.	.	.	.	.	.	.	.	.	.	.	.	.	.	.	.	.	.	.
.	.	.	.	16b-\	.	16aa\JJ	.	.	.	.	.	.	.	.	.	.	.	.	.	.	.	.	.	.	.	.	.
*	*	*tremolo	*	*	*	*tremolo	*	*	*	*	*	*	*	*	*	*	*	*	*	*	*	*	*	*	*	*	*
8E\L	.	8e\L	.	16b-\	.	16gg\LL	.	.	.	.	.	.	.	4e\)	.	.	4g\)	.	.	.	.	.	.	.	.	[2gg\	.
.	.	.	.	16b-\	.	16gg\	.	.	.	.	.	.	.	.	.	.	.	.	.	.	.	.	.	.	.	.	.
8D\	.	8e\	.	16b-\	.	16gg\	.	8D\)	.	.	.	.	.	.	.	.	.	.	.	.	.	.	.	.	.	.	.
.	.	.	.	16b-\	.	16gg\	.	.	.	.	.	.	.	.	.	.	.	.	.	.	.	.	.	.	.	.	.
8C\	.	8e\	.	16b-\	.	16gg\	.	4C/	-sis	.	4B-\	-sis	.	4e\	-sis	.	4g\	-sis	.	.	.	.	.	.	.	.	.
.	.	.	.	16b-\	.	16gg\	.	.	.	.	.	.	.	.	.	.	.	.	.	.	.	.	.	.	.	.	.
8E\J	.	8e\J	.	16b-\	.	16gg\	.	.	.	.	.	.	.	.	.	.	.	.	.	.	.	.	.	.	.	.	.
.	.	.	.	16b-\JJ	.	16gg\JJ	.	.	.	.	.	.	.	.	.	.	.	.	.	.	.	.	.	.	.	.	.
*	*	*Xtremolo	*	*	*	*Xtremolo	*	*	*	*	*	*	*	*	*	*	*	*	*	*	*	*	*	*	*	*	*
=12	=12	=12	=12	=12	=12	=12	=12	=12	=12	=12	=12	=12	=12	=12	=12	=12	=12	=12	=12	=12	=12	=12	=12	=12	=12	=12	=12
!LO:TX:t=P:problem=mixed beam	!	!	!	!	!	!	!	!	!	!	!	!	!	!	!	!	!	!	!	!	!	!	!	!	!	!	!
8FF/L	.	16e\LL	.	16f/ 16aLL	.	16gg\LL	.	2F\	in	.	(4A\	in	.	(4e\	in-	.	2a\	in	.	4r	.	4r	.	2.a\	.	4gg\]	.
.	.	16e\	.	16f/ 16a	.	16gg\	.	.	.	.	.	.	.	.	.	.	.	.	.	.	.	.	.	.	.	.	.
8F\J	.	16e\	.	16f/ 16a	.	16gg\	.	.	.	.	.	.	.	.	.	.	.	.	.	.	.	.	.	.	.	.	.
.	.	16e\JJ	.	16f/ 16a	.	16gg\JJ	.	.	.	.	.	.	.	.	.	.	.	.	.	.	.	.	.	.	.	.	.
*	*	*	*	*	*	*tremolo	*	*	*	*	*	*	*	*	*	*	*	*	*	*	*	*	*	*	*	*	*
!	!	!LO:SIC:v:o=8en\L	!	!	!	!	!	!	!	!	!	!	!	!	!	!	!	!	!	!	!	!	!	!	!	!	!
8E-X\L	.	8e-	.	16f/ 16a	.	16ff\LL	.	.	.	.	4c\)	.	.	4f\)	.	.	.	.	.	4F/	.	4f\	.	.	.	2ff\	.
.	.	.	.	16f/ 16a	.	16ff\	.	.	.	.	.	.	.	.	.	.	.	.	.	.	.	.	.	.	.	.	.
8C\J	.	8c\	.	16f/ 16a	.	16ff\	.	.	.	.	.	.	.	.	.	.	.	.	.	.	.	.	.	.	.	.	.
.	.	.	.	16f/ 16a	.	16ff\	.	.	.	.	.	.	.	.	.	.	.	.	.	.	.	.	.	.	.	.	.
8AA/L	.	8A\	.	16f/ 16a	.	16ff\	.	4E-X\	ex-	.	4c\	ex-	.	4f\	-ex-	.	4b-\	ex-	.	4F/	.	4f\	.	.	.	.	.
.	.	.	.	16f/ 16a	.	16ff\	.	.	.	.	.	.	.	.	.	.	.	.	.	.	.	.	.	.	.	.	.
!LO:SIC:v:o=8EE/J	!	!LO:SIC:v:o=8c\J	!	!	!	!	!	!	!	!	!	!	!	!	!	!	!	!	!	!	!	!	!	!	!	!	!
8EE-J	.	8e-	.	16f/ 16a	.	16ff\	.	.	.	.	.	.	.	.	.	.	.	.	.	.	.	.	.	.	.	.	.
.	.	.	.	16f/ 16aJJ	.	16ff\JJ	.	.	.	.	.	.	.	.	.	.	.	.	.	.	.	.	.	.	.	.	.
*	*	*	*	*Xtremolo	*	*Xtremolo	*	*	*	*	*	*	*	*	*	*	*	*	*	*	*	*	*	*	*	*	*
=13	=13	=13	=13	=13	=13	=13	=13	=13	=13	=13	=13	=13	=13	=13	=13	=13	=13	=13	=13	=13	=13	=13	=13	=13	=13	=13	=13
!	!	!LO:LB:g=original	!	!	!	!	!	!LO:LB:g=original	!	!	!LO:LB:g=original	!	!	!	!	!	!	!	!	!	!	!	!	!	!	!	!
8DD/L	.	8d\L	.	(16b-\LL	.	(16b-\LL	.	(4D\	-cel-	.	(4B-\	-cel-	.	2f\	-cel-	.	(4b-\	-cel-	.	2.F/	.	2.f\	.	4b-\	.	2.ff\	.
.	.	.	.	16ff\)	.	16ff\)	.	.	.	.	.	.	.	.	.	.	.	.	.	.	.	.	.	.	.	.	.
!	!	!	!	!	!	!LO:SIC:o=16ff'\	!	!	!	!	!	!	!	!	!	!	!	!	!	!	!	!	!	!	!	!	!
8D/J	.	8B-\	.	16ff|\	.	16ff|	.	.	.	.	.	.	.	.	.	.	.	.	.	.	.	.	.	.	.	.	.
!	!	!	!	!	!	!LO:SIC:o=16ff'\JJ	!	!	!	!	!	!	!	!	!	!	!	!	!	!	!	!	!	!	!	!	!
.	.	.	.	16ff|\JJ	.	16ff|JJ	.	.	.	.	.	.	.	.	.	.	.	.	.	.	.	.	.	.	.	.	.
4C/	.	8e-X\	.	(16cc\LL	.	(16cc\LL	.	4C\)	.	.	4A\)	.	.	.	.	.	4cc\)	.	.	.	.	.	.	4cc\	.	.	.
.	.	.	.	16ff\)	.	16ff\)	.	.	.	.	.	.	.	.	.	.	.	.	.	.	.	.	.	.	.	.	.
!	!	!	!	!	!	!LO:SIC:o=16ff'\	!	!	!	!	!	!	!	!	!	!	!	!	!	!	!	!	!	!	!	!	!
.	.	8c\	.	16ff|\	.	16ff|	.	.	.	.	.	.	.	.	.	.	.	.	.	.	.	.	.	.	.	.	.
!	!	!	!	!	!	!LO:SIC:o=16ff'\JJ	!	!	!	!	!	!	!	!	!	!	!	!	!	!	!	!	!	!	!	!	!
.	.	.	.	16ff|\JJ	.	16ff|JJ	.	.	.	.	.	.	.	.	.	.	.	.	.	.	.	.	.	.	.	.	.
4BB-/	.	8d\	.	(16dd\LL	.	(16dd\LL	.	4BB-\	-sis	.	4B-\	-sis	.	4f\	-sis	.	4dd\	-sis	.	.	.	.	.	4dd\	.	.	.
.	.	.	.	16ff\)	.	16ff\)	.	.	.	.	.	.	.	.	.	.	.	.	.	.	.	.	.	.	.	.	.
!	!	!	!	!	!	!LO:SIC:o=16ff'\	!	!	!	!	!	!	!	!	!	!	!	!	!	!	!	!	!	!	!	!	!
.	.	8d\J	.	16ff|\	.	16ff|	.	.	.	.	.	.	.	.	.	.	.	.	.	.	.	.	.	.	.	.	.
!	!	!	!	!	!	!LO:SIC:o=16ff'\JJ	!	!	!	!	!	!	!	!	!	!	!	!	!	!	!	!	!	!	!	!	!
.	.	.	.	16ff|\JJ	.	16ff|JJ	.	.	.	.	.	.	.	.	.	.	.	.	.	.	.	.	.	.	.	.	.
=14	=14	=14	=14	=14	=14	=14	=14	=14	=14	=14	=14	=14	=14	=14	=14	=14	=14	=14	=14	=14	=14	=14	=14	=14	=14	=14	=14
*tremolo	*	*tremolo	*	*tremolo	*	*	*	*	*	*	*	*	*	*	*	*	*	*	*	*	*	*	*	*	*	*	*
!	!	!	!	!LO:LB:g=original	!	!LO:LB:g=original	!	!	!	!	!	!	!	!LO:LB:g=original	!	!	!	!	!	!	!	!LO:LB:g=original	!	!	!	!	!
8C/L	.	8c\L	.	16a/LL	.	16cc\LL	.	2C/	in	.	2c\	in	.	2a\	in	.	(4cc\	in	.	2.a\	.	2.a\	.	2.ff\	.	2.aa\	.
.	.	.	.	16a/	.	16ff\	.	.	.	.	.	.	.	.	.	.	.	.	.	.	.	.	.	.	.	.	.
8C/	.	8c\	.	16a/	.	16ff\	.	.	.	.	.	.	.	.	.	.	.	.	.	.	.	.	.	.	.	.	.
.	.	.	.	16a/	.	16ff\JJ	.	.	.	.	.	.	.	.	.	.	.	.	.	.	.	.	.	.	.	.	.
*	*	*	*	*	*	*tremolo	*	*	*	*	*	*	*	*	*	*	*	*	*	*	*	*	*	*	*	*	*
8C/	.	8c\	.	16a/	.	16ff\LL	.	.	.	.	.	.	.	.	.	.	4ff\)	.	.	.	.	.	.	.	.	.	.
.	.	.	.	16a/	.	16ff\	.	.	.	.	.	.	.	.	.	.	.	.	.	.	.	.	.	.	.	.	.
8C/	.	8c\	.	16a/	.	16ff\	.	.	.	.	.	.	.	.	.	.	.	.	.	.	.	.	.	.	.	.	.
.	.	.	.	16a/	.	16ff\JJ	.	.	.	.	.	.	.	.	.	.	.	.	.	.	.	.	.	.	.	.	.
8C/	.	8c\	.	16a/	.	16ff\LL	.	4C/	ex-	.	4c\	ex-	.	4a\	ex-	.	4ff\	ex-	.	.	.	.	.	.	.	.	.
.	.	.	.	16a/	.	16ff\	.	.	.	.	.	.	.	.	.	.	.	.	.	.	.	.	.	.	.	.	.
8C/J	.	8c\J	.	16a/	.	16ff\	.	.	.	.	.	.	.	.	.	.	.	.	.	.	.	.	.	.	.	.	.
.	.	.	.	16a/JJ	.	16ff\JJ	.	.	.	.	.	.	.	.	.	.	.	.	.	.	.	.	.	.	.	.	.
!	!	!	!	!	!	!LO:MO:mod=*null:null	!	!	!	!	!	!	!	!	!	!	!	!	!	!	!	!	!	!	!	!	!
*	*	*	*	*	*	*Xtremolo	*	*	*	*	*	*	*	*	*	*	*	*	*	*	*	*	*	*	*	*	*
=15	=15	=15	=15	=15	=15	=15	=15	=15	=15	=15	=15	=15	=15	=15	=15	=15	=15	=15	=15	=15	=15	=15	=15	=15	=15	=15	=15
!	!	!	!	!	!	!	!	!	!	!	!	!	!	!	!	!	!LO:pB:g=original	!	!	!	!	!	!	!	!	!	!
8C/L	.	8c\L	.	16g/LL	.	16ff\LL	.	2.C/	-cel-	.	2.c\	-Cel-	.	2.g\	-cel-	.	2ff\	-cel-	.	2.g\	.	2.g\	.	2ff\	.	2.gg\	.
.	.	.	.	16g/	.	16ff\	.	.	.	.	.	.	.	.	.	.	.	.	.	.	.	.	.	.	.	.	.
8C/	.	8c\	.	16g/	.	16ff\	.	.	.	.	.	.	.	.	.	.	.	.	.	.	.	.	.	.	.	.	.
.	.	.	.	16g/	.	16ff\JJ	.	.	.	.	.	.	.	.	.	.	.	.	.	.	.	.	.	.	.	.	.
8C/	.	8c\	.	16g/	.	16ff\LL	.	.	.	.	.	.	.	.	.	.	.	.	.	.	.	.	.	.	.	.	.
.	.	.	.	16g/	.	16ff\	.	.	.	.	.	.	.	.	.	.	.	.	.	.	.	.	.	.	.	.	.
8C/J	.	8c\J	.	16g/	.	16ff\	.	.	.	.	.	.	.	.	.	.	.	.	.	.	.	.	.	.	.	.	.
.	.	.	.	16g/JJ	.	16ff\JJ	.	.	.	.	.	.	.	.	.	.	.	.	.	.	.	.	.	.	.	.	.
*	*	*Xtremolo	*	*	*	*	*	*	*	*	*	*	*	*	*	*	*	*	*	*	*	*	*	*	*	*	*
*Xtremolo	*	*	*	*	*	*	*	*	*	*	*	*	*	*	*	*	*	*	*	*	*	*	*	*	*	*	*
8CC/L	.	8C/L	.	16g/ 16b-LL	.	16ee\LL	.	.	.	.	.	.	.	.	.	.	4ee\	.	.	.	.	.	.	4ee\	.	.	.
.	.	.	.	16g/ 16b-	.	16ee\	.	.	.	.	.	.	.	.	.	.	.	.	.	.	.	.	.	.	.	.	.
8CC/J	.	8C/J	.	16g/ 16b-	.	16ee\	.	.	.	.	.	.	.	.	.	.	.	.	.	.	.	.	.	.	.	.	.
.	.	.	.	16g/ 16b-JJ	.	16ee\JJ	.	.	.	.	.	.	.	.	.	.	.	.	.	.	.	.	.	.	.	.	.
!	!	!	!	!	!	!LO:MO:null:mod=*Xtremolo	!	!	!	!	!	!	!	!	!	!	!	!	!	!	!	!	!	!	!	!	!
*	*	*	*	*Xtremolo	*	*	*	*	*	*	*	*	*	*	*	*	*	*	*	*	*	*	*	*	*	*	*
=16	=16	=16	=16	=16	=16	=16	=16	=16	=16	=16	=16	=16	=16	=16	=16	=16	=16	=16	=16	=16	=16	=16	=16	=16	=16	=16	=16
!LO:LB:g=original	!	!	!	!LO:TX:t=P:problem=pierwsze i ostatnie nuty zapisane jako tremolo	!	!LO:TX:t=P:problem=mixed beam	!	!	!	!	!	!	!	!	!	!	!	!	!	!	!	!	!	!	!	!	!
4FF/	.	8F/L	.	16f/LL	.	(8ff\L	.	4F\	-sis	.	4c\	-sis	.	4a\	-sis	.	4ff\	-sis	.	4a\	.	4a\	.	4ff\	.	4ff\	.
.	.	.	.	16f/	.	.	.	.	.	.	.	.	.	.	.	.	.	.	.	.	.	.	.	.	.	.	.
.	.	8F/	.	8f/	.	8f/J)	.	.	.	.	.	.	.	.	.	.	.	.	.	.	.	.	.	.	.	.	.
4r	.	8F/	.	8f/	.	8ff\L	.	4r	.	.	4r	.	.	4r	.	.	4r	.	.	4r	.	4r	.	4r	.	4r	.
.	.	8F/J	.	8f/	.	8ff\	.	.	.	.	.	.	.	.	.	.	.	.	.	.	.	.	.	.	.	.	.
4A\	.	8e-X/L	.	8cc/	.	8ff\	.	4A\	O-	.	4c\	O-	.	4f\	O-	.	4ee-X\	O-	.	4f\	.	4f\	.	4cc\	.	4ee-\	.
.	.	8d/J	.	16f/	.	8ff\J	.	.	.	.	.	.	.	.	.	.	.	.	.	.	.	.	.	.	.	.	.
.	.	.	.	16f/JJ	.	.	.	.	.	.	.	.	.	.	.	.	.	.	.	.	.	.	.	.	.	.	.
=17	=17	=17	=17	=17	=17	=17	=17	=17	=17	=17	=17	=17	=17	=17	=17	=17	=17	=17	=17	=17	=17	=17	=17	=17	=17	=17	=17
!	!	!	!	!	!	!LO:TX:t=P:problem=mixed beam	!	!	!	!	!	!	!	!	!	!	!	!	!	!LO:LB:g=original	!	!	!	!	!	!LO:LB:g=original	!
4B-\	.	(8B-/L	.	16dd/LL	.	(8ff\L	.	4B-\	-san-	.	4B-\	-san-	.	4f\	-san-	.	4dd\	-san-	.	4f\	.	4f\	.	4dd\	.	4dd\	.
.	.	.	.	16dd/	.	.	.	.	.	.	.	.	.	.	.	.	.	.	.	.	.	.	.	.	.	.	.
.	.	8F/)	.	8f/	.	8f/J)	.	.	.	.	.	.	.	.	.	.	.	.	.	.	.	.	.	.	.	.	.
4r	.	8F|/	.	8f/	.	8ff\L	.	4r	.	.	4r	.	.	4r	.	.	4r	.	.	4r	.	4r	.	4r	.	4r	.
.	.	8F|/J	.	8f/	.	8ff\	.	.	.	.	.	.	.	.	.	.	.	.	.	.	.	.	.	.	.	.	.
4A\	.	(8c/L	.	8ee-X/	.	8ff\	.	4A\	-na	.	4c\	-na	.	4f\	-na	.	4ee-X\	-na	.	4f\	.	4f\	.	4ee-\	.	4ee-\	.
.	.	8F/J)	.	16f/	.	8ff\J	.	.	.	.	.	.	.	.	.	.	.	.	.	.	.	.	.	.	.	.	.
.	.	.	.	16f/JJ	.	.	.	.	.	.	.	.	.	.	.	.	.	.	.	.	.	.	.	.	.	.	.
*	*	*	*	*	*	*	*	*	*	*	*	*	*	*	*	*	*	*	*	*	*	*	*	*	*	*	*
=18	=18	=18	=18	=18	=18	=18	=18	=18	=18	=18	=18	=18	=18	=18	=18	=18	=18	=18	=18	=18	=18	=18	=18	=18	=18	=18	=18
!	!	!	!	!	!	!LO:TX:t=P:problem=mixed beam	!	!	!	!	!	!	!	!	!	!	!	!	!	!	!	!	!	!	!	!	!
!	!	!	!	!	!	!LO:SIC:o=8f/L	!	!	!	!	!	!	!	!	!	!	!	!	!	!	!	!	!	!	!	!	!
4B-\	.	4B-/	.	4dd\	.	(8fL	.	2B-\	in	.	2B-\	in	.	2b-\	in	.	2dd\	in	.	4f\	.	4f\	.	4dd\	.	4dd\	.
!	!	!	!	!	!	!LO:SIC:o=8ff\	!	!	!	!	!	!	!	!	!	!	!	!	!	!	!	!	!	!	!	!	!
.	.	.	.	.	.	8ff)	.	.	.	.	.	.	.	.	.	.	.	.	.	.	.	.	.	.	.	.	.
4r	.	4b-\	.	4dd\	.	8ff\	.	.	.	.	.	.	.	.	.	.	.	.	.	4f\	.	4f\	.	4ff\	.	4ff\	.
.	.	.	.	.	.	8ff\	.	.	.	.	.	.	.	.	.	.	.	.	.	.	.	.	.	.	.	.	.
4BB-/	.	4b-\	.	4dd\	.	8ff\	.	4BB-/	ex-	.	4B-\	ex-	.	4b-\	ex-	.	4dd\	ex-	.	4f\	.	4f\	.	4dd\	.	4dd\	.
.	.	.	.	.	.	8ff\J	.	.	.	.	.	.	.	.	.	.	.	.	.	.	.	.	.	.	.	.	.
=19	=19	=19	=19	=19	=19	=19	=19	=19	=19	=19	=19	=19	=19	=19	=19	=19	=19	=19	=19	=19	=19	=19	=19	=19	=19	=19	=19
!	!	!	!	!	!	!LO:LB:g=original	!	!	!	!	!LO:SIC:o=4B-\	!	!	!	!	!	!	!	!	!	!	!	!	!	!	!	!
2.F\	.	4b-\	.	4dd\	.	2.ffT\	.	2.F\	-cel-	.	(4B-	-cel-	.	(4b-\	-cel-	.	(4dd\	-cel-	.	2.f\	.	2.f\	.	(4dd\	.	(4dd\	.
!	!	!	!	!	!	!	!	!	!	!	!	!	!	!	!	!	!LO:SIC:o=4cc\)	!	!	!	!	!	!	!	!	!	!
.	.	4a\	.	4cc\	.	.	.	.	.	.	4A\	.	.	4a\	.	.	4cc	.	.	.	.	.	.	4cc\	.	4cc\	.
!	!	!	!	!	!	!	!	!	!	!	!LO:SIC:o=4G\	!	!	!	!	!	!LO:SIC:o=4b-\	!	!	!	!	!	!	!	!	!	!
.	.	4g\	.	4b-\	.	.	.	.	.	.	4G)	.	.	4g\)	.	.	4b-)	.	.	.	.	.	.	4b-\)	.	4b-\)	.
=20	=20	=20	=20	=20	=20	=20	=20	=20	=20	=20	=20	=20	=20	=20	=20	=20	=20	=20	=20	=20	=20	=20	=20	=20	=20	=20	=20
!	!	!	!	!	!	!	!	!	!	!	!	!	!	!	!	!	!	!	!	!	!	!LO:N:vis=2.	!	!LO:LB:g=original	!	!	!
2F;\	.	2a;\	.	2cc;\	.	2ff;\	.	2F;\	-sis.	.	2A;\	-sis	.	2a;\	-sis	.	2cc;\	-sis	.	2f;\	.	2f;\	.	2cc;\	.	2cc;\	.
!	!	!	!	!	!	!	!	!	!	!	!	!	!	!	!	!	!	!	!	!	!	!	!	!	!	!	!
4r	.	4r	.	4r	.	4r	.	4r	.	.	4r	.	.	4ryy	.	.	4r	.	.	4r	.	4r	.	4r	.	4r	.
!	!	!	!	!	!	!LO:TX:b:t=Verte.:mod=	!	!	!	!	!	!	!	!	!	!	!	!	!	!	!	!	!	!	!	!	!
==	==	==	==	==	==	==	==	==	==	==	==	==	==	==	==	==	==	==	==	==	==	==	==	==	==	==	==
*-	*-	*-	*-	*-	*-	*-	*-	*-	*-	*-	*-	*-	*-	*-	*-	*-	*-	*-	*-	*-	*-	*-	*-	*-	*-	*-	*-
!!!system-decoration: [(g1)][(g2)][(g3)][(g4)]s12
!!!RDF**kern: > = above
!!!RDF**kern: < = below
!!!RDF**kern: | = vertical stroke
!!!filter-modern: sic -sq | shed -e "s/TX(.*):t=P:/tx$1:t=P:/LG" | shed -k -e "s/[<>]//g" | shed -e "s/^custos:/Xcustos:/I" | shed -e "s/yy//" | shed -e "s/^(\d+[\/\\]right)/$1yy/I;s/^(\d+[\/\\]left)/$1yy/I" | shed -k -e "s/LO:N:vis/LO:n:vis:/L" | shed -k -e "s/#X/#/g" | shed -k -e "s/-X/-/g" | shed -e "s/:rj/:RJ/L" | shed -e "s/LO:DY:(a|b|rj)/LO:dy:$1/L" | shed -e "s/(LO:DY.*):t=(.*$)/$1:T=$2/L; s/LO:DY(.*)(:a:)(.*)/LO:dy:$1$2$3/L; s/LO:DY(.*)(:b:)(.*)/LO:dy:$1$2$3/L; s/LO:DY(.*)(:[ab])$/LO:dy:$1$2/L; s/LO:DY(.*)(:rj:)(.*)/LO:dy:$1$2$3/L" | shed -e "s/-//B" | modori -m | tie -s | autostem -r | humtr -p
!!!ENC: Andrzej Borzym
!!!END: 2020-09-15
!!!EED: Krzysztof Stępień
!!!EEV: 2022-01-31
!!!ENC-modern: Andrzej Borzym
!!!END-modern: 2022-11-22
